imageandaudiofx/The Original G-Major 2.cube
# VEGAS Pro LUT
TITLE "The Original G-Major 2"
LUT_3D_SIZE 33
1.09999895 1.09999895 -0.89999735
1.03749895 1.09999895 -0.89999735
0.97499913 1.09999895 -0.89999735
0.91249925 1.09999895 -0.89999735
0.84999937 1.09999895 -0.89999735
0.78749949 1.09999895 -0.89999735
0.72499961 1.09999895 -0.89999735
0.66249973 1.09999895 -0.89999735
0.59999985 1.09999895 -0.89999735
0.53749996 1.09999895 -0.89999735
0.47500008 1.09999895 -0.89999735
0.41250020 1.09999895 -0.89999735
0.35000032 1.09999895 -0.89999735
0.28750044 1.09999895 -0.89999735
0.22500056 1.09999895 -0.89999735
0.16250068 1.09999895 -0.89999735
0.10000080 1.09999895 -0.89999735
0.03750092 1.09999895 -0.89999735
-0.02499896 1.09999895 -0.89999735
-0.08749884 1.09999895 -0.89999735
-0.14999872 1.09999895 -0.89999735
-0.21249861 1.09999895 -0.89999735
-0.27499849 1.09999895 -0.89999735
-0.33749837 1.09999895 -0.89999735
-0.39999825 1.09999895 -0.89999735
-0.46249813 1.09999895 -0.89999735
-0.52499807 1.09999895 -0.89999735
-0.58749795 1.09999895 -0.89999735
-0.64999783 1.09999895 -0.89999735
-0.71249771 1.09999895 -0.89999735
-0.77499759 1.09999895 -0.89999735
-0.83749747 1.09999895 -0.89999735
-0.89999735 1.09999895 -0.89999735
1.09999895 1.03749895 -0.89999735
1.03749895 1.03749895 -0.89999735
0.97499913 1.03749895 -0.89999735
0.91249925 1.03749895 -0.89999735
0.84999937 1.03749895 -0.89999735
0.78749949 1.03749895 -0.89999735
0.72499961 1.03749895 -0.89999735
0.66249973 1.03749895 -0.89999735
0.59999985 1.03749895 -0.89999735
0.53749996 1.03749895 -0.89999735
0.47500008 1.03749895 -0.89999735
0.41250020 1.03749895 -0.89999735
0.35000032 1.03749895 -0.89999735
0.28750044 1.03749895 -0.89999735
0.22500056 1.03749895 -0.89999735
0.16250068 1.03749895 -0.89999735
0.10000080 1.03749895 -0.89999735
0.03750092 1.03749895 -0.89999735
-0.02499896 1.03749895 -0.89999735
-0.08749884 1.03749895 -0.89999735
-0.14999872 1.03749895 -0.89999735
-0.21249861 1.03749895 -0.89999735
-0.27499849 1.03749895 -0.89999735
-0.33749837 1.03749895 -0.89999735
-0.39999825 1.03749895 -0.89999735
-0.46249813 1.03749895 -0.89999735
-0.52499807 1.03749895 -0.89999735
-0.58749795 1.03749895 -0.89999735
-0.64999783 1.03749895 -0.89999735
-0.71249771 1.03749895 -0.89999735
-0.77499759 1.03749895 -0.89999735
-0.83749747 1.03749895 -0.89999735
-0.89999735 1.03749895 -0.89999735
1.09999895 0.97499913 -0.89999735
1.03749895 0.97499913 -0.89999735
0.97499913 0.97499913 -0.89999735
0.91249925 0.97499913 -0.89999735
0.84999937 0.97499913 -0.89999735
0.78749949 0.97499913 -0.89999735
0.72499961 0.97499913 -0.89999735
0.66249973 0.97499913 -0.89999735
0.59999985 0.97499913 -0.89999735
0.53749996 0.97499913 -0.89999735
0.47500008 0.97499913 -0.89999735
0.41250020 0.97499913 -0.89999735
0.35000032 0.97499913 -0.89999735
0.28750044 0.97499913 -0.89999735
0.22500056 0.97499913 -0.89999735
0.16250068 0.97499913 -0.89999735
0.10000080 0.97499913 -0.89999735
0.03750092 0.97499913 -0.89999735
-0.02499896 0.97499913 -0.89999735
-0.08749884 0.97499913 -0.89999735
-0.14999872 0.97499913 -0.89999735
-0.21249861 0.97499913 -0.89999735
-0.27499849 0.97499913 -0.89999735
-0.33749837 0.97499913 -0.89999735
-0.39999825 0.97499913 -0.89999735
-0.46249813 0.97499913 -0.89999735
-0.52499807 0.97499913 -0.89999735
-0.58749795 0.97499913 -0.89999735
-0.64999783 0.97499913 -0.89999735
-0.71249771 0.97499913 -0.89999735
-0.77499759 0.97499913 -0.89999735
-0.83749747 0.97499913 -0.89999735
-0.89999735 0.97499913 -0.89999735
1.09999895 0.91249925 -0.89999735
1.03749895 0.91249925 -0.89999735
0.97499913 0.91249925 -0.89999735
0.91249925 0.91249925 -0.89999735
0.84999937 0.91249925 -0.89999735
0.78749949 0.91249925 -0.89999735
0.72499961 0.91249925 -0.89999735
0.66249973 0.91249925 -0.89999735
0.59999985 0.91249925 -0.89999735
0.53749996 0.91249925 -0.89999735
0.47500008 0.91249925 -0.89999735
0.41250020 0.91249925 -0.89999735
0.35000032 0.91249925 -0.89999735
0.28750044 0.91249925 -0.89999735
0.22500056 0.91249925 -0.89999735
0.16250068 0.91249925 -0.89999735
0.10000080 0.91249925 -0.89999735
0.03750092 0.91249925 -0.89999735
-0.02499896 0.91249925 -0.89999735
-0.08749884 0.91249925 -0.89999735
-0.14999872 0.91249925 -0.89999735
-0.21249861 0.91249925 -0.89999735
-0.27499849 0.91249925 -0.89999735
-0.33749837 0.91249925 -0.89999735
-0.39999825 0.91249925 -0.89999735
-0.46249813 0.91249925 -0.89999735
-0.52499807 0.91249925 -0.89999735
-0.58749795 0.91249925 -0.89999735
-0.64999783 0.91249925 -0.89999735
-0.71249771 0.91249925 -0.89999735
-0.77499759 0.91249925 -0.89999735
-0.83749747 0.91249925 -0.89999735
-0.89999735 0.91249925 -0.89999735
1.09999895 0.84999937 -0.89999735
1.03749895 0.84999937 -0.89999735
0.97499913 0.84999937 -0.89999735
0.91249925 0.84999937 -0.89999735
0.84999937 0.84999937 -0.89999735
0.78749949 0.84999937 -0.89999735
0.72499961 0.84999937 -0.89999735
0.66249973 0.84999937 -0.89999735
0.59999985 0.84999937 -0.89999735
0.53749996 0.84999937 -0.89999735
0.47500008 0.84999937 -0.89999735
0.41250020 0.84999937 -0.89999735
0.35000032 0.84999937 -0.89999735
0.28750044 0.84999937 -0.89999735
0.22500056 0.84999937 -0.89999735
0.16250068 0.84999937 -0.89999735
0.10000080 0.84999937 -0.89999735
0.03750092 0.84999937 -0.89999735
-0.02499896 0.84999937 -0.89999735
-0.08749884 0.84999937 -0.89999735
-0.14999872 0.84999937 -0.89999735
-0.21249861 0.84999937 -0.89999735
-0.27499849 0.84999937 -0.89999735
-0.33749837 0.84999937 -0.89999735
-0.39999825 0.84999937 -0.89999735
-0.46249813 0.84999937 -0.89999735
-0.52499807 0.84999937 -0.89999735
-0.58749795 0.84999937 -0.89999735
-0.64999783 0.84999937 -0.89999735
-0.71249771 0.84999937 -0.89999735
-0.77499759 0.84999937 -0.89999735
-0.83749747 0.84999937 -0.89999735
-0.89999735 0.84999937 -0.89999735
1.09999895 0.78749949 -0.89999735
1.03749895 0.78749949 -0.89999735
0.97499913 0.78749949 -0.89999735
0.91249925 0.78749949 -0.89999735
0.84999937 0.78749949 -0.89999735
0.78749949 0.78749949 -0.89999735
0.72499961 0.78749949 -0.89999735
0.66249973 0.78749949 -0.89999735
0.59999985 0.78749949 -0.89999735
0.53749996 0.78749949 -0.89999735
0.47500008 0.78749949 -0.89999735
0.41250020 0.78749949 -0.89999735
0.35000032 0.78749949 -0.89999735
0.28750044 0.78749949 -0.89999735
0.22500056 0.78749949 -0.89999735
0.16250068 0.78749949 -0.89999735
0.10000080 0.78749949 -0.89999735
0.03750092 0.78749949 -0.89999735
-0.02499896 0.78749949 -0.89999735
-0.08749884 0.78749949 -0.89999735
-0.14999872 0.78749949 -0.89999735
-0.21249861 0.78749949 -0.89999735
-0.27499849 0.78749949 -0.89999735
-0.33749837 0.78749949 -0.89999735
-0.39999825 0.78749949 -0.89999735
-0.46249813 0.78749949 -0.89999735
-0.52499807 0.78749949 -0.89999735
-0.58749795 0.78749949 -0.89999735
-0.64999783 0.78749949 -0.89999735
-0.71249771 0.78749949 -0.89999735
-0.77499759 0.78749949 -0.89999735
-0.83749747 0.78749949 -0.89999735
-0.89999735 0.78749949 -0.89999735
1.09999895 0.72499961 -0.89999735
1.03749895 0.72499961 -0.89999735
0.97499913 0.72499961 -0.89999735
0.91249925 0.72499961 -0.89999735
0.84999937 0.72499961 -0.89999735
0.78749949 0.72499961 -0.89999735
0.72499961 0.72499961 -0.89999735
0.66249973 0.72499961 -0.89999735
0.59999985 0.72499961 -0.89999735
0.53749996 0.72499961 -0.89999735
0.47500008 0.72499961 -0.89999735
0.41250020 0.72499961 -0.89999735
0.35000032 0.72499961 -0.89999735
0.28750044 0.72499961 -0.89999735
0.22500056 0.72499961 -0.89999735
0.16250068 0.72499961 -0.89999735
0.10000080 0.72499961 -0.89999735
0.03750092 0.72499961 -0.89999735
-0.02499896 0.72499961 -0.89999735
-0.08749884 0.72499961 -0.89999735
-0.14999872 0.72499961 -0.89999735
-0.21249861 0.72499961 -0.89999735
-0.27499849 0.72499961 -0.89999735
-0.33749837 0.72499961 -0.89999735
-0.39999825 0.72499961 -0.89999735
-0.46249813 0.72499961 -0.89999735
-0.52499807 0.72499961 -0.89999735
-0.58749795 0.72499961 -0.89999735
-0.64999783 0.72499961 -0.89999735
-0.71249771 0.72499961 -0.89999735
-0.77499759 0.72499961 -0.89999735
-0.83749747 0.72499961 -0.89999735
-0.89999735 0.72499961 -0.89999735
1.09999895 0.66249973 -0.89999735
1.03749895 0.66249973 -0.89999735
0.97499913 0.66249973 -0.89999735
0.91249925 0.66249973 -0.89999735
0.84999937 0.66249973 -0.89999735
0.78749949 0.66249973 -0.89999735
0.72499961 0.66249973 -0.89999735
0.66249973 0.66249973 -0.89999735
0.59999985 0.66249973 -0.89999735
0.53749996 0.66249973 -0.89999735
0.47500008 0.66249973 -0.89999735
0.41250020 0.66249973 -0.89999735
0.35000032 0.66249973 -0.89999735
0.28750044 0.66249973 -0.89999735
0.22500056 0.66249973 -0.89999735
0.16250068 0.66249973 -0.89999735
0.10000080 0.66249973 -0.89999735
0.03750092 0.66249973 -0.89999735
-0.02499896 0.66249973 -0.89999735
-0.08749884 0.66249973 -0.89999735
-0.14999872 0.66249973 -0.89999735
-0.21249861 0.66249973 -0.89999735
-0.27499849 0.66249973 -0.89999735
-0.33749837 0.66249973 -0.89999735
-0.39999825 0.66249973 -0.89999735
-0.46249813 0.66249973 -0.89999735
-0.52499807 0.66249973 -0.89999735
-0.58749795 0.66249973 -0.89999735
-0.64999783 0.66249973 -0.89999735
-0.71249771 0.66249973 -0.89999735
-0.77499759 0.66249973 -0.89999735
-0.83749747 0.66249973 -0.89999735
-0.89999735 0.66249973 -0.89999735
1.09999895 0.59999985 -0.89999735
1.03749895 0.59999985 -0.89999735
0.97499913 0.59999985 -0.89999735
0.91249925 0.59999985 -0.89999735
0.84999937 0.59999985 -0.89999735
0.78749949 0.59999985 -0.89999735
0.72499961 0.59999985 -0.89999735
0.66249973 0.59999985 -0.89999735
0.59999985 0.59999985 -0.89999735
0.53749996 0.59999985 -0.89999735
0.47500008 0.59999985 -0.89999735
0.41250020 0.59999985 -0.89999735
0.35000032 0.59999985 -0.89999735
0.28750044 0.59999985 -0.89999735
0.22500056 0.59999985 -0.89999735
0.16250068 0.59999985 -0.89999735
0.10000080 0.59999985 -0.89999735
0.03750092 0.59999985 -0.89999735
-0.02499896 0.59999985 -0.89999735
-0.08749884 0.59999985 -0.89999735
-0.14999872 0.59999985 -0.89999735
-0.21249861 0.59999985 -0.89999735
-0.27499849 0.59999985 -0.89999735
-0.33749837 0.59999985 -0.89999735
-0.39999825 0.59999985 -0.89999735
-0.46249813 0.59999985 -0.89999735
-0.52499807 0.59999985 -0.89999735
-0.58749795 0.59999985 -0.89999735
-0.64999783 0.59999985 -0.89999735
-0.71249771 0.59999985 -0.89999735
-0.77499759 0.59999985 -0.89999735
-0.83749747 0.59999985 -0.89999735
-0.89999735 0.59999985 -0.89999735
1.09999895 0.53749996 -0.89999735
1.03749895 0.53749996 -0.89999735
0.97499913 0.53749996 -0.89999735
0.91249925 0.53749996 -0.89999735
0.84999937 0.53749996 -0.89999735
0.78749949 0.53749996 -0.89999735
0.72499961 0.53749996 -0.89999735
0.66249973 0.53749996 -0.89999735
0.59999985 0.53749996 -0.89999735
0.53749996 0.53749996 -0.89999735
0.47500008 0.53749996 -0.89999735
0.41250020 0.53749996 -0.89999735
0.35000032 0.53749996 -0.89999735
0.28750044 0.53749996 -0.89999735
0.22500056 0.53749996 -0.89999735
0.16250068 0.53749996 -0.89999735
0.10000080 0.53749996 -0.89999735
0.03750092 0.53749996 -0.89999735
-0.02499896 0.53749996 -0.89999735
-0.08749884 0.53749996 -0.89999735
-0.14999872 0.53749996 -0.89999735
-0.21249861 0.53749996 -0.89999735
-0.27499849 0.53749996 -0.89999735
-0.33749837 0.53749996 -0.89999735
-0.39999825 0.53749996 -0.89999735
-0.46249813 0.53749996 -0.89999735
-0.52499807 0.53749996 -0.89999735
-0.58749795 0.53749996 -0.89999735
-0.64999783 0.53749996 -0.89999735
-0.71249771 0.53749996 -0.89999735
-0.77499759 0.53749996 -0.89999735
-0.83749747 0.53749996 -0.89999735
-0.89999735 0.53749996 -0.89999735
1.09999895 0.47500008 -0.89999735
1.03749895 0.47500008 -0.89999735
0.97499913 0.47500008 -0.89999735
0.91249925 0.47500008 -0.89999735
0.84999937 0.47500008 -0.89999735
0.78749949 0.47500008 -0.89999735
0.72499961 0.47500008 -0.89999735
0.66249973 0.47500008 -0.89999735
0.59999985 0.47500008 -0.89999735
0.53749996 0.47500008 -0.89999735
0.47500008 0.47500008 -0.89999735
0.41250020 0.47500008 -0.89999735
0.35000032 0.47500008 -0.89999735
0.28750044 0.47500008 -0.89999735
0.22500056 0.47500008 -0.89999735
0.16250068 0.47500008 -0.89999735
0.10000080 0.47500008 -0.89999735
0.03750092 0.47500008 -0.89999735
-0.02499896 0.47500008 -0.89999735
-0.08749884 0.47500008 -0.89999735
-0.14999872 0.47500008 -0.89999735
-0.21249861 0.47500008 -0.89999735
-0.27499849 0.47500008 -0.89999735
-0.33749837 0.47500008 -0.89999735
-0.39999825 0.47500008 -0.89999735
-0.46249813 0.47500008 -0.89999735
-0.52499807 0.47500008 -0.89999735
-0.58749795 0.47500008 -0.89999735
-0.64999783 0.47500008 -0.89999735
-0.71249771 0.47500008 -0.89999735
-0.77499759 0.47500008 -0.89999735
-0.83749747 0.47500008 -0.89999735
-0.89999735 0.47500008 -0.89999735
1.09999895 0.41250020 -0.89999735
1.03749895 0.41250020 -0.89999735
0.97499913 0.41250020 -0.89999735
0.91249925 0.41250020 -0.89999735
0.84999937 0.41250020 -0.89999735
0.78749949 0.41250020 -0.89999735
0.72499961 0.41250020 -0.89999735
0.66249973 0.41250020 -0.89999735
0.59999985 0.41250020 -0.89999735
0.53749996 0.41250020 -0.89999735
0.47500008 0.41250020 -0.89999735
0.41250020 0.41250020 -0.89999735
0.35000032 0.41250020 -0.89999735
0.28750044 0.41250020 -0.89999735
0.22500056 0.41250020 -0.89999735
0.16250068 0.41250020 -0.89999735
0.10000080 0.41250020 -0.89999735
0.03750092 0.41250020 -0.89999735
-0.02499896 0.41250020 -0.89999735
-0.08749884 0.41250020 -0.89999735
-0.14999872 0.41250020 -0.89999735
-0.21249861 0.41250020 -0.89999735
-0.27499849 0.41250020 -0.89999735
-0.33749837 0.41250020 -0.89999735
-0.39999825 0.41250020 -0.89999735
-0.46249813 0.41250020 -0.89999735
-0.52499807 0.41250020 -0.89999735
-0.58749795 0.41250020 -0.89999735
-0.64999783 0.41250020 -0.89999735
-0.71249771 0.41250020 -0.89999735
-0.77499759 0.41250020 -0.89999735
-0.83749747 0.41250020 -0.89999735
-0.89999735 0.41250020 -0.89999735
1.09999895 0.35000032 -0.89999735
1.03749895 0.35000032 -0.89999735
0.97499913 0.35000032 -0.89999735
0.91249925 0.35000032 -0.89999735
0.84999937 0.35000032 -0.89999735
0.78749949 0.35000032 -0.89999735
0.72499961 0.35000032 -0.89999735
0.66249973 0.35000032 -0.89999735
0.59999985 0.35000032 -0.89999735
0.53749996 0.35000032 -0.89999735
0.47500008 0.35000032 -0.89999735
0.41250020 0.35000032 -0.89999735
0.35000032 0.35000032 -0.89999735
0.28750044 0.35000032 -0.89999735
0.22500056 0.35000032 -0.89999735
0.16250068 0.35000032 -0.89999735
0.10000080 0.35000032 -0.89999735
0.03750092 0.35000032 -0.89999735
-0.02499896 0.35000032 -0.89999735
-0.08749884 0.35000032 -0.89999735
-0.14999872 0.35000032 -0.89999735
-0.21249861 0.35000032 -0.89999735
-0.27499849 0.35000032 -0.89999735
-0.33749837 0.35000032 -0.89999735
-0.39999825 0.35000032 -0.89999735
-0.46249813 0.35000032 -0.89999735
-0.52499807 0.35000032 -0.89999735
-0.58749795 0.35000032 -0.89999735
-0.64999783 0.35000032 -0.89999735
-0.71249771 0.35000032 -0.89999735
-0.77499759 0.35000032 -0.89999735
-0.83749747 0.35000032 -0.89999735
-0.89999735 0.35000032 -0.89999735
1.09999895 0.28750044 -0.89999735
1.03749895 0.28750044 -0.89999735
0.97499913 0.28750044 -0.89999735
0.91249925 0.28750044 -0.89999735
0.84999937 0.28750044 -0.89999735
0.78749949 0.28750044 -0.89999735
0.72499961 0.28750044 -0.89999735
0.66249973 0.28750044 -0.89999735
0.59999985 0.28750044 -0.89999735
0.53749996 0.28750044 -0.89999735
0.47500008 0.28750044 -0.89999735
0.41250020 0.28750044 -0.89999735
0.35000032 0.28750044 -0.89999735
0.28750044 0.28750044 -0.89999735
0.22500056 0.28750044 -0.89999735
0.16250068 0.28750044 -0.89999735
0.10000080 0.28750044 -0.89999735
0.03750092 0.28750044 -0.89999735
-0.02499896 0.28750044 -0.89999735
-0.08749884 0.28750044 -0.89999735
-0.14999872 0.28750044 -0.89999735
-0.21249861 0.28750044 -0.89999735
-0.27499849 0.28750044 -0.89999735
-0.33749837 0.28750044 -0.89999735
-0.39999825 0.28750044 -0.89999735
-0.46249813 0.28750044 -0.89999735
-0.52499807 0.28750044 -0.89999735
-0.58749795 0.28750044 -0.89999735
-0.64999783 0.28750044 -0.89999735
-0.71249771 0.28750044 -0.89999735
-0.77499759 0.28750044 -0.89999735
-0.83749747 0.28750044 -0.89999735
-0.89999735 0.28750044 -0.89999735
1.09999895 0.22500056 -0.89999735
1.03749895 0.22500056 -0.89999735
0.97499913 0.22500056 -0.89999735
0.91249925 0.22500056 -0.89999735
0.84999937 0.22500056 -0.89999735
0.78749949 0.22500056 -0.89999735
0.72499961 0.22500056 -0.89999735
0.66249973 0.22500056 -0.89999735
0.59999985 0.22500056 -0.89999735
0.53749996 0.22500056 -0.89999735
0.47500008 0.22500056 -0.89999735
0.41250020 0.22500056 -0.89999735
0.35000032 0.22500056 -0.89999735
0.28750044 0.22500056 -0.89999735
0.22500056 0.22500056 -0.89999735
0.16250068 0.22500056 -0.89999735
0.10000080 0.22500056 -0.89999735
0.03750092 0.22500056 -0.89999735
-0.02499896 0.22500056 -0.89999735
-0.08749884 0.22500056 -0.89999735
-0.14999872 0.22500056 -0.89999735
-0.21249861 0.22500056 -0.89999735
-0.27499849 0.22500056 -0.89999735
-0.33749837 0.22500056 -0.89999735
-0.39999825 0.22500056 -0.89999735
-0.46249813 0.22500056 -0.89999735
-0.52499807 0.22500056 -0.89999735
-0.58749795 0.22500056 -0.89999735
-0.64999783 0.22500056 -0.89999735
-0.71249771 0.22500056 -0.89999735
-0.77499759 0.22500056 -0.89999735
-0.83749747 0.22500056 -0.89999735
-0.89999735 0.22500056 -0.89999735
1.09999895 0.16250068 -0.89999735
1.03749895 0.16250068 -0.89999735
0.97499913 0.16250068 -0.89999735
0.91249925 0.16250068 -0.89999735
0.84999937 0.16250068 -0.89999735
0.78749949 0.16250068 -0.89999735
0.72499961 0.16250068 -0.89999735
0.66249973 0.16250068 -0.89999735
0.59999985 0.16250068 -0.89999735
0.53749996 0.16250068 -0.89999735
0.47500008 0.16250068 -0.89999735
0.41250020 0.16250068 -0.89999735
0.35000032 0.16250068 -0.89999735
0.28750044 0.16250068 -0.89999735
0.22500056 0.16250068 -0.89999735
0.16250068 0.16250068 -0.89999735
0.10000080 0.16250068 -0.89999735
0.03750092 0.16250068 -0.89999735
-0.02499896 0.16250068 -0.89999735
-0.08749884 0.16250068 -0.89999735
-0.14999872 0.16250068 -0.89999735
-0.21249861 0.16250068 -0.89999735
-0.27499849 0.16250068 -0.89999735
-0.33749837 0.16250068 -0.89999735
-0.39999825 0.16250068 -0.89999735
-0.46249813 0.16250068 -0.89999735
-0.52499807 0.16250068 -0.89999735
-0.58749795 0.16250068 -0.89999735
-0.64999783 0.16250068 -0.89999735
-0.71249771 0.16250068 -0.89999735
-0.77499759 0.16250068 -0.89999735
-0.83749747 0.16250068 -0.89999735
-0.89999735 0.16250068 -0.89999735
1.09999895 0.10000080 -0.89999735
1.03749895 0.10000080 -0.89999735
0.97499913 0.10000080 -0.89999735
0.91249925 0.10000080 -0.89999735
0.84999937 0.10000080 -0.89999735
0.78749949 0.10000080 -0.89999735
0.72499961 0.10000080 -0.89999735
0.66249973 0.10000080 -0.89999735
0.59999985 0.10000080 -0.89999735
0.53749996 0.10000080 -0.89999735
0.47500008 0.10000080 -0.89999735
0.41250020 0.10000080 -0.89999735
0.35000032 0.10000080 -0.89999735
0.28750044 0.10000080 -0.89999735
0.22500056 0.10000080 -0.89999735
0.16250068 0.10000080 -0.89999735
0.10000080 0.10000080 -0.89999735
0.03750092 0.10000080 -0.89999735
-0.02499896 0.10000080 -0.89999735
-0.08749884 0.10000080 -0.89999735
-0.14999872 0.10000080 -0.89999735
-0.21249861 0.10000080 -0.89999735
-0.27499849 0.10000080 -0.89999735
-0.33749837 0.10000080 -0.89999735
-0.39999825 0.10000080 -0.89999735
-0.46249813 0.10000080 -0.89999735
-0.52499807 0.10000080 -0.89999735
-0.58749795 0.10000080 -0.89999735
-0.64999783 0.10000080 -0.89999735
-0.71249771 0.10000080 -0.89999735
-0.77499759 0.10000080 -0.89999735
-0.83749747 0.10000080 -0.89999735
-0.89999735 0.10000080 -0.89999735
1.09999895 0.03750092 -0.89999735
1.03749895 0.03750092 -0.89999735
0.97499913 0.03750092 -0.89999735
0.91249925 0.03750092 -0.89999735
0.84999937 0.03750092 -0.89999735
0.78749949 0.03750092 -0.89999735
0.72499961 0.03750092 -0.89999735
0.66249973 0.03750092 -0.89999735
0.59999985 0.03750092 -0.89999735
0.53749996 0.03750092 -0.89999735
0.47500008 0.03750092 -0.89999735
0.41250020 0.03750092 -0.89999735
0.35000032 0.03750092 -0.89999735
0.28750044 0.03750092 -0.89999735
0.22500056 0.03750092 -0.89999735
0.16250068 0.03750092 -0.89999735
0.10000080 0.03750092 -0.89999735
0.03750092 0.03750092 -0.89999735
-0.02499896 0.03750092 -0.89999735
-0.08749884 0.03750092 -0.89999735
-0.14999872 0.03750092 -0.89999735
-0.21249861 0.03750092 -0.89999735
-0.27499849 0.03750092 -0.89999735
-0.33749837 0.03750092 -0.89999735
-0.39999825 0.03750092 -0.89999735
-0.46249813 0.03750092 -0.89999735
-0.52499807 0.03750092 -0.89999735
-0.58749795 0.03750092 -0.89999735
-0.64999783 0.03750092 -0.89999735
-0.71249771 0.03750092 -0.89999735
-0.77499759 0.03750092 -0.89999735
-0.83749747 0.03750092 -0.89999735
-0.89999735 0.03750092 -0.89999735
1.09999895 -0.02499896 -0.89999735
1.03749895 -0.02499896 -0.89999735
0.97499913 -0.02499896 -0.89999735
0.91249925 -0.02499896 -0.89999735
0.84999937 -0.02499896 -0.89999735
0.78749949 -0.02499896 -0.89999735
0.72499961 -0.02499896 -0.89999735
0.66249973 -0.02499896 -0.89999735
0.59999985 -0.02499896 -0.89999735
0.53749996 -0.02499896 -0.89999735
0.47500008 -0.02499896 -0.89999735
0.41250020 -0.02499896 -0.89999735
0.35000032 -0.02499896 -0.89999735
0.28750044 -0.02499896 -0.89999735
0.22500056 -0.02499896 -0.89999735
0.16250068 -0.02499896 -0.89999735
0.10000080 -0.02499896 -0.89999735
0.03750092 -0.02499896 -0.89999735
-0.02499896 -0.02499896 -0.89999735
-0.08749884 -0.02499896 -0.89999735
-0.14999872 -0.02499896 -0.89999735
-0.21249861 -0.02499896 -0.89999735
-0.27499849 -0.02499896 -0.89999735
-0.33749837 -0.02499896 -0.89999735
-0.39999825 -0.02499896 -0.89999735
-0.46249813 -0.02499896 -0.89999735
-0.52499807 -0.02499896 -0.89999735
-0.58749795 -0.02499896 -0.89999735
-0.64999783 -0.02499896 -0.89999735
-0.71249771 -0.02499896 -0.89999735
-0.77499759 -0.02499896 -0.89999735
-0.83749747 -0.02499896 -0.89999735
-0.89999735 -0.02499896 -0.89999735
1.09999895 -0.08749884 -0.89999735
1.03749895 -0.08749884 -0.89999735
0.97499913 -0.08749884 -0.89999735
0.91249925 -0.08749884 -0.89999735
0.84999937 -0.08749884 -0.89999735
0.78749949 -0.08749884 -0.89999735
0.72499961 -0.08749884 -0.89999735
0.66249973 -0.08749884 -0.89999735
0.59999985 -0.08749884 -0.89999735
0.53749996 -0.08749884 -0.89999735
0.47500008 -0.08749884 -0.89999735
0.41250020 -0.08749884 -0.89999735
0.35000032 -0.08749884 -0.89999735
0.28750044 -0.08749884 -0.89999735
0.22500056 -0.08749884 -0.89999735
0.16250068 -0.08749884 -0.89999735
0.10000080 -0.08749884 -0.89999735
0.03750092 -0.08749884 -0.89999735
-0.02499896 -0.08749884 -0.89999735
-0.08749884 -0.08749884 -0.89999735
-0.14999872 -0.08749884 -0.89999735
-0.21249861 -0.08749884 -0.89999735
-0.27499849 -0.08749884 -0.89999735
-0.33749837 -0.08749884 -0.89999735
-0.39999825 -0.08749884 -0.89999735
-0.46249813 -0.08749884 -0.89999735
-0.52499807 -0.08749884 -0.89999735
-0.58749795 -0.08749884 -0.89999735
-0.64999783 -0.08749884 -0.89999735
-0.71249771 -0.08749884 -0.89999735
-0.77499759 -0.08749884 -0.89999735
-0.83749747 -0.08749884 -0.89999735
-0.89999735 -0.08749884 -0.89999735
1.09999895 -0.14999872 -0.89999735
1.03749895 -0.14999872 -0.89999735
0.97499913 -0.14999872 -0.89999735
0.91249925 -0.14999872 -0.89999735
0.84999937 -0.14999872 -0.89999735
0.78749949 -0.14999872 -0.89999735
0.72499961 -0.14999872 -0.89999735
0.66249973 -0.14999872 -0.89999735
0.59999985 -0.14999872 -0.89999735
0.53749996 -0.14999872 -0.89999735
0.47500008 -0.14999872 -0.89999735
0.41250020 -0.14999872 -0.89999735
0.35000032 -0.14999872 -0.89999735
0.28750044 -0.14999872 -0.89999735
0.22500056 -0.14999872 -0.89999735
0.16250068 -0.14999872 -0.89999735
0.10000080 -0.14999872 -0.89999735
0.03750092 -0.14999872 -0.89999735
-0.02499896 -0.14999872 -0.89999735
-0.08749884 -0.14999872 -0.89999735
-0.14999872 -0.14999872 -0.89999735
-0.21249861 -0.14999872 -0.89999735
-0.27499849 -0.14999872 -0.89999735
-0.33749837 -0.14999872 -0.89999735
-0.39999825 -0.14999872 -0.89999735
-0.46249813 -0.14999872 -0.89999735
-0.52499807 -0.14999872 -0.89999735
-0.58749795 -0.14999872 -0.89999735
-0.64999783 -0.14999872 -0.89999735
-0.71249771 -0.14999872 -0.89999735
-0.77499759 -0.14999872 -0.89999735
