imageandaudiofx/The Original G-Major 2.cube
# VEGAS Pro LUT
TITLE "The Original G-Major 2"
LUT_3D_SIZE 9
1.09999895 1.09999895 -0.89999735
0.84999937 1.09999895 -0.89999735
0.59999985 1.09999895 -0.89999735
0.35000032 1.09999895 -0.89999735
0.10000080 1.09999895 -0.89999735
-0.14999872 1.09999895 -0.89999735
-0.39999825 1.09999895 -0.89999735
-0.64999783 1.09999895 -0.89999735
-0.89999735 1.09999895 -0.89999735
1.09999895 0.84999937 -0.89999735
0.84999937 0.84999937 -0.89999735
0.59999985 0.84999937 -0.89999735
0.35000032 0.84999937 -0.89999735
0.10000080 0.84999937 -0.89999735
-0.14999872 0.84999937 -0.89999735
-0.39999825 0.84999937 -0.89999735
-0.64999783 0.84999937 -0.89999735
-0.89999735 0.84999937 -0.89999735
1.09999895 0.59999985 -0.89999735
0.84999937 0.59999985 -0.89999735
0.59999985 0.59999985 -0.89999735
0.35000032 0.59999985 -0.89999735
0.10000080 0.59999985 -0.89999735
-0.14999872 0.59999985 -0.89999735
-0.39999825 0.59999985 -0.89999735
-0.64999783 0.59999985 -0.89999735
-0.89999735 0.59999985 -0.89999735
1.09999895 0.35000032 -0.89999735
0.84999937 0.35000032 -0.89999735
0.59999985 0.35000032 -0.89999735
0.35000032 0.35000032 -0.89999735
0.10000080 0.35000032 -0.89999735
-0.14999872 0.35000032 -0.89999735
-0.39999825 0.35000032 -0.89999735
-0.64999783 0.35000032 -0.89999735
-0.89999735 0.35000032 -0.89999735
1.09999895 0.10000080 -0.89999735
0.84999937 0.10000080 -0.89999735
0.59999985 0.10000080 -0.89999735
0.35000032 0.10000080 -0.89999735
0.10000080 0.10000080 -0.89999735
-0.14999872 0.10000080 -0.89999735
-0.39999825 0.10000080 -0.89999735
-0.64999783 0.10000080 -0.89999735
-0.89999735 0.10000080 -0.89999735
1.09999895 -0.14999872 -0.89999735
0.84999937 -0.14999872 -0.89999735
0.59999985 -0.14999872 -0.89999735
0.35000032 -0.14999872 -0.89999735
0.10000080 -0.14999872 -0.89999735
-0.14999872 -0.14999872 -0.89999735
-0.39999825 -0.14999872 -0.89999735
-0.64999783 -0.14999872 -0.89999735
-0.89999735 -0.14999872 -0.89999735
1.09999895 -0.39999825 -0.89999735
0.84999937 -0.39999825 -0.89999735
0.59999985 -0.39999825 -0.89999735
0.35000032 -0.39999825 -0.89999735
0.10000080 -0.39999825 -0.89999735
-0.14999872 -0.39999825 -0.89999735
-0.39999825 -0.39999825 -0.89999735
-0.64999783 -0.39999825 -0.89999735
-0.89999735 -0.39999825 -0.89999735
1.09999895 -0.64999783 -0.89999735
0.84999937 -0.64999783 -0.89999735
0.59999985 -0.64999783 -0.89999735
0.35000032 -0.64999783 -0.89999735
0.10000080 -0.64999783 -0.89999735
-0.14999872 -0.64999783 -0.89999735
-0.39999825 -0.64999783 -0.89999735
-0.64999783 -0.64999783 -0.89999735
-0.89999735 -0.64999783 -0.89999735
1.09999895 -0.89999735 -0.89999735
0.84999937 -0.89999735 -0.89999735
0.59999985 -0.89999735 -0.89999735
0.35000032 -0.89999735 -0.89999735
0.10000080 -0.89999735 -0.89999735
-0.14999872 -0.89999735 -0.89999735
-0.39999825 -0.89999735 -0.89999735
-0.64999783 -0.89999735 -0.89999735
-0.89999735 -0.89999735 -0.89999735
1.09999895 1.09999895 -0.64999783
0.84999937 1.09999895 -0.64999783
0.59999985 1.09999895 -0.64999783
0.35000032 1.09999895 -0.64999783
0.10000080 1.09999895 -0.64999783
-0.14999872 1.09999895 -0.64999783
-0.39999825 1.09999895 -0.64999783
-0.64999783 1.09999895 -0.64999783
-0.89999735 1.09999895 -0.64999783
1.09999895 0.84999937 -0.64999783
0.84999937 0.84999937 -0.64999783
0.59999985 0.84999937 -0.64999783
0.35000032 0.84999937 -0.64999783
0.10000080 0.84999937 -0.64999783
-0.14999872 0.84999937 -0.64999783
-0.39999825 0.84999937 -0.64999783
-0.64999783 0.84999937 -0.64999783
-0.89999735 0.84999937 -0.64999783
1.09999895 0.59999985 -0.64999783
0.84999937 0.59999985 -0.64999783
0.59999985 0.59999985 -0.64999783
0.35000032 0.59999985 -0.64999783
0.10000080 0.59999985 -0.64999783
-0.14999872 0.59999985 -0.64999783
-0.39999825 0.59999985 -0.64999783
-0.64999783 0.59999985 -0.64999783
-0.89999735 0.59999985 -0.64999783
1.09999895 0.35000032 -0.64999783
0.84999937 0.35000032 -0.64999783
0.59999985 0.35000032 -0.64999783
0.35000032 0.35000032 -0.64999783
0.10000080 0.35000032 -0.64999783
-0.14999872 0.35000032 -0.64999783
-0.39999825 0.35000032 -0.64999783
-0.64999783 0.35000032 -0.64999783
-0.89999735 0.35000032 -0.64999783
1.09999895 0.10000080 -0.64999783
0.84999937 0.10000080 -0.64999783
0.59999985 0.10000080 -0.64999783
0.35000032 0.10000080 -0.64999783
0.10000080 0.10000080 -0.64999783
-0.14999872 0.10000080 -0.64999783
-0.39999825 0.10000080 -0.64999783
-0.64999783 0.10000080 -0.64999783
-0.89999735 0.10000080 -0.64999783
1.09999895 -0.14999872 -0.64999783
0.84999937 -0.14999872 -0.64999783
0.59999985 -0.14999872 -0.64999783
0.35000032 -0.14999872 -0.64999783
0.10000080 -0.14999872 -0.64999783
-0.14999872 -0.14999872 -0.64999783
-0.39999825 -0.14999872 -0.64999783
-0.64999783 -0.14999872 -0.64999783
-0.89999735 -0.14999872 -0.64999783
1.09999895 -0.39999825 -0.64999783
0.84999937 -0.39999825 -0.64999783
0.59999985 -0.39999825 -0.64999783
0.35000032 -0.39999825 -0.64999783
0.10000080 -0.39999825 -0.64999783
-0.14999872 -0.39999825 -0.64999783
-0.39999825 -0.39999825 -0.64999783
-0.64999783 -0.39999825 -0.64999783
-0.89999735 -0.39999825 -0.64999783
1.09999895 -0.64999783 -0.64999783
0.84999937 -0.64999783 -0.64999783
0.59999985 -0.64999783 -0.64999783
0.35000032 -0.64999783 -0.64999783
0.10000080 -0.64999783 -0.64999783
-0.14999872 -0.64999783 -0.64999783
-0.39999825 -0.64999783 -0.64999783
-0.64999783 -0.64999783 -0.64999783
-0.89999735 -0.64999783 -0.64999783
1.09999895 -0.89999735 -0.64999783
0.84999937 -0.89999735 -0.64999783
0.59999985 -0.89999735 -0.64999783
0.35000032 -0.89999735 -0.64999783
0.10000080 -0.89999735 -0.64999783
-0.14999872 -0.89999735 -0.64999783
-0.39999825 -0.89999735 -0.64999783
-0.64999783 -0.89999735 -0.64999783
-0.89999735 -0.89999735 -0.64999783
1.09999895 1.09999895 -0.39999825
0.84999937 1.09999895 -0.39999825
0.59999985 1.09999895 -0.39999825
0.35000032 1.09999895 -0.39999825
0.10000080 1.09999895 -0.39999825
-0.14999872 1.09999895 -0.39999825
-0.39999825 1.09999895 -0.39999825
-0.64999783 1.09999895 -0.39999825
-0.89999735 1.09999895 -0.39999825
1.09999895 0.84999937 -0.39999825
0.84999937 0.84999937 -0.39999825
0.59999985 0.84999937 -0.39999825
0.35000032 0.84999937 -0.39999825
0.10000080 0.84999937 -0.39999825
-0.14999872 0.84999937 -0.39999825
-0.39999825 0.84999937 -0.39999825
-0.64999783 0.84999937 -0.39999825
-0.89999735 0.84999937 -0.39999825
1.09999895 0.59999985 -0.39999825
0.84999937 0.59999985 -0.39999825
0.59999985 0.59999985 -0.39999825
0.35000032 0.59999985 -0.39999825
0.10000080 0.59999985 -0.39999825
-0.14999872 0.59999985 -0.39999825
-0.39999825 0.59999985 -0.39999825
-0.64999783 0.59999985 -0.39999825
-0.89999735 0.59999985 -0.39999825
1.09999895 0.35000032 -0.39999825
0.84999937 0.35000032 -0.39999825
0.59999985 0.35000032 -0.39999825
0.35000032 0.35000032 -0.39999825
0.10000080 0.35000032 -0.39999825
-0.14999872 0.35000032 -0.39999825
-0.39999825 0.35000032 -0.39999825
-0.64999783 0.35000032 -0.39999825
-0.89999735 0.35000032 -0.39999825
1.09999895 0.10000080 -0.39999825
0.84999937 0.10000080 -0.39999825
0.59999985 0.10000080 -0.39999825
0.35000032 0.10000080 -0.39999825
0.10000080 0.10000080 -0.39999825
-0.14999872 0.10000080 -0.39999825
-0.39999825 0.10000080 -0.39999825
-0.64999783 0.10000080 -0.39999825
-0.89999735 0.10000080 -0.39999825
1.09999895 -0.14999872 -0.39999825
0.84999937 -0.14999872 -0.39999825
0.59999985 -0.14999872 -0.39999825
0.35000032 -0.14999872 -0.39999825
0.10000080 -0.14999872 -0.39999825
-0.14999872 -0.14999872 -0.39999825
-0.39999825 -0.14999872 -0.39999825
-0.64999783 -0.14999872 -0.39999825
-0.89999735 -0.14999872 -0.39999825
1.09999895 -0.39999825 -0.39999825
0.84999937 -0.39999825 -0.39999825
0.59999985 -0.39999825 -0.39999825
0.35000032 -0.39999825 -0.39999825
0.10000080 -0.39999825 -0.39999825
-0.14999872 -0.39999825 -0.39999825
-0.39999825 -0.39999825 -0.39999825
-0.64999783 -0.39999825 -0.39999825
-0.89999735 -0.39999825 -0.39999825
1.09999895 -0.64999783 -0.39999825
0.84999937 -0.64999783 -0.39999825
0.59999985 -0.64999783 -0.39999825
0.35000032 -0.64999783 -0.39999825
0.10000080 -0.64999783 -0.39999825
-0.14999872 -0.64999783 -0.39999825
-0.39999825 -0.64999783 -0.39999825
-0.64999783 -0.64999783 -0.39999825
-0.89999735 -0.64999783 -0.39999825
1.09999895 -0.89999735 -0.39999825
0.84999937 -0.89999735 -0.39999825
0.59999985 -0.89999735 -0.39999825
0.35000032 -0.89999735 -0.39999825
0.10000080 -0.89999735 -0.39999825
-0.14999872 -0.89999735 -0.39999825
-0.39999825 -0.89999735 -0.39999825
-0.64999783 -0.89999735 -0.39999825
-0.89999735 -0.89999735 -0.39999825
1.09999895 1.09999895 -0.14999872
0.84999937 1.09999895 -0.14999872
0.59999985 1.09999895 -0.14999872
0.35000032 1.09999895 -0.14999872
0.10000080 1.09999895 -0.14999872
-0.14999872 1.09999895 -0.14999872
-0.39999825 1.09999895 -0.14999872
-0.64999783 1.09999895 -0.14999872
-0.89999735 1.09999895 -0.14999872
1.09999895 0.84999937 -0.14999872
0.84999937 0.84999937 -0.14999872
0.59999985 0.84999937 -0.14999872
0.35000032 0.84999937 -0.14999872
0.10000080 0.84999937 -0.14999872
-0.14999872 0.84999937 -0.14999872
-0.39999825 0.84999937 -0.14999872
-0.64999783 0.84999937 -0.14999872
-0.89999735 0.84999937 -0.14999872
1.09999895 0.59999985 -0.14999872
0.84999937 0.59999985 -0.14999872
0.59999985 0.59999985 -0.14999872
0.35000032 0.59999985 -0.14999872
0.10000080 0.59999985 -0.14999872
-0.14999872 0.59999985 -0.14999872
-0.39999825 0.59999985 -0.14999872
-0.64999783 0.59999985 -0.14999872
-0.89999735 0.59999985 -0.14999872
1.09999895 0.35000032 -0.14999872
0.84999937 0.35000032 -0.14999872
0.59999985 0.35000032 -0.14999872
0.35000032 0.35000032 -0.14999872
0.10000080 0.35000032 -0.14999872
-0.14999872 0.35000032 -0.14999872
-0.39999825 0.35000032 -0.14999872
-0.64999783 0.35000032 -0.14999872
-0.89999735 0.35000032 -0.14999872
1.09999895 0.10000080 -0.14999872
0.84999937 0.10000080 -0.14999872
0.59999985 0.10000080 -0.14999872
0.35000032 0.10000080 -0.14999872
0.10000080 0.10000080 -0.14999872
-0.14999872 0.10000080 -0.14999872
-0.39999825 0.10000080 -0.14999872
-0.64999783 0.10000080 -0.14999872
-0.89999735 0.10000080 -0.14999872
1.09999895 -0.14999872 -0.14999872
0.84999937 -0.14999872 -0.14999872
0.59999985 -0.14999872 -0.14999872
0.35000032 -0.14999872 -0.14999872
0.10000080 -0.14999872 -0.14999872
-0.14999872 -0.14999872 -0.14999872
-0.39999825 -0.14999872 -0.14999872
-0.64999783 -0.14999872 -0.14999872
-0.89999735 -0.14999872 -0.14999872
1.09999895 -0.39999825 -0.14999872
0.84999937 -0.39999825 -0.14999872
0.59999985 -0.39999825 -0.14999872
0.35000032 -0.39999825 -0.14999872
0.10000080 -0.39999825 -0.14999872
-0.14999872 -0.39999825 -0.14999872
-0.39999825 -0.39999825 -0.14999872
-0.64999783 -0.39999825 -0.14999872
-0.89999735 -0.39999825 -0.14999872
1.09999895 -0.64999783 -0.14999872
0.84999937 -0.64999783 -0.14999872
0.59999985 -0.64999783 -0.14999872
0.35000032 -0.64999783 -0.14999872
0.10000080 -0.64999783 -0.14999872
-0.14999872 -0.64999783 -0.14999872
-0.39999825 -0.64999783 -0.14999872
-0.64999783 -0.64999783 -0.14999872
-0.89999735 -0.64999783 -0.14999872
1.09999895 -0.89999735 -0.14999872
0.84999937 -0.89999735 -0.14999872
0.59999985 -0.89999735 -0.14999872
0.35000032 -0.89999735 -0.14999872
0.10000080 -0.89999735 -0.14999872
-0.14999872 -0.89999735 -0.14999872
-0.39999825 -0.89999735 -0.14999872
-0.64999783 -0.89999735 -0.14999872
-0.89999735 -0.89999735 -0.14999872
1.09999895 1.09999895 0.10000080
0.84999937 1.09999895 0.10000080
0.59999985 1.09999895 0.10000080
0.35000032 1.09999895 0.10000080
0.10000080 1.09999895 0.10000080
-0.14999872 1.09999895 0.10000080
-0.39999825 1.09999895 0.10000080
-0.64999783 1.09999895 0.10000080
-0.89999735 1.09999895 0.10000080
1.09999895 0.84999937 0.10000080
0.84999937 0.84999937 0.10000080
0.59999985 0.84999937 0.10000080
0.35000032 0.84999937 0.10000080
0.10000080 0.84999937 0.10000080
-0.14999872 0.84999937 0.10000080
-0.39999825 0.84999937 0.10000080
-0.64999783 0.84999937 0.10000080
-0.89999735 0.84999937 0.10000080
1.09999895 0.59999985 0.10000080
0.84999937 0.59999985 0.10000080
0.59999985 0.59999985 0.10000080
0.35000032 0.59999985 0.10000080
0.10000080 0.59999985 0.10000080
-0.14999872 0.59999985 0.10000080
-0.39999825 0.59999985 0.10000080
-0.64999783 0.59999985 0.10000080
-0.89999735 0.59999985 0.10000080
1.09999895 0.35000032 0.10000080
0.84999937 0.35000032 0.10000080
0.59999985 0.35000032 0.10000080
0.35000032 0.35000032 0.10000080
0.10000080 0.35000032 0.10000080
-0.14999872 0.35000032 0.10000080
-0.39999825 0.35000032 0.10000080
-0.64999783 0.35000032 0.10000080
-0.89999735 0.35000032 0.10000080
1.09999895 0.10000080 0.10000080
0.84999937 0.10000080 0.10000080
0.59999985 0.10000080 0.10000080
0.35000032 0.10000080 0.10000080
0.10000080 0.10000080 0.10000080
-0.14999872 0.10000080 0.10000080
-0.39999825 0.10000080 0.10000080
-0.64999783 0.10000080 0.10000080
-0.89999735 0.10000080 0.10000080
1.09999895 -0.14999872 0.10000080
0.84999937 -0.14999872 0.10000080
0.59999985 -0.14999872 0.10000080
0.35000032 -0.14999872 0.10000080
0.10000080 -0.14999872 0.10000080
-0.14999872 -0.14999872 0.10000080
-0.39999825 -0.14999872 0.10000080
-0.64999783 -0.14999872 0.10000080
-0.89999735 -0.14999872 0.10000080
1.09999895 -0.39999825 0.10000080
0.84999937 -0.39999825 0.10000080
0.59999985 -0.39999825 0.10000080
0.35000032 -0.39999825 0.10000080
0.10000080 -0.39999825 0.10000080
-0.14999872 -0.39999825 0.10000080
-0.39999825 -0.39999825 0.10000080
-0.64999783 -0.39999825 0.10000080
-0.89999735 -0.39999825 0.10000080
1.09999895 -0.64999783 0.10000080
0.84999937 -0.64999783 0.10000080
0.59999985 -0.64999783 0.10000080
0.35000032 -0.64999783 0.10000080
0.10000080 -0.64999783 0.10000080
-0.14999872 -0.64999783 0.10000080
-0.39999825 -0.64999783 0.10000080
-0.64999783 -0.64999783 0.10000080
-0.89999735 -0.64999783 0.10000080
1.09999895 -0.89999735 0.10000080
0.84999937 -0.89999735 0.10000080
0.59999985 -0.89999735 0.10000080
0.35000032 -0.89999735 0.10000080
0.10000080 -0.89999735 0.10000080
-0.14999872 -0.89999735 0.10000080
-0.39999825 -0.89999735 0.10000080
-0.64999783 -0.89999735 0.10000080
-0.89999735 -0.89999735 0.10000080
1.09999895 1.09999895 0.35000032
0.84999937 1.09999895 0.35000032
0.59999985 1.09999895 0.35000032
0.35000032 1.09999895 0.35000032
0.10000080 1.09999895 0.35000032
-0.14999872 1.09999895 0.35000032
-0.39999825 1.09999895 0.35000032
-0.64999783 1.09999895 0.35000032
-0.89999735 1.09999895 0.35000032
1.09999895 0.84999937 0.35000032
0.84999937 0.84999937 0.35000032
0.59999985 0.84999937 0.35000032
0.35000032 0.84999937 0.35000032
0.10000080 0.84999937 0.35000032
-0.14999872 0.84999937 0.35000032
-0.39999825 0.84999937 0.35000032
-0.64999783 0.84999937 0.35000032
-0.89999735 0.84999937 0.35000032
1.09999895 0.59999985 0.35000032
0.84999937 0.59999985 0.35000032
0.59999985 0.59999985 0.35000032
0.35000032 0.59999985 0.35000032
0.10000080 0.59999985 0.35000032
-0.14999872 0.59999985 0.35000032
-0.39999825 0.59999985 0.35000032
-0.64999783 0.59999985 0.35000032
-0.89999735 0.59999985 0.35000032
1.09999895 0.35000032 0.35000032
0.84999937 0.35000032 0.35000032
0.59999985 0.35000032 0.35000032
0.35000032 0.35000032 0.35000032
0.10000080 0.35000032 0.35000032
-0.14999872 0.35000032 0.35000032
-0.39999825 0.35000032 0.35000032
-0.64999783 0.35000032 0.35000032
-0.89999735 0.35000032 0.35000032
1.09999895 0.10000080 0.35000032
0.84999937 0.10000080 0.35000032
0.59999985 0.10000080 0.35000032
0.35000032 0.10000080 0.35000032
0.10000080 0.10000080 0.35000032
-0.14999872 0.10000080 0.35000032
-0.39999825 0.10000080 0.35000032
-0.64999783 0.10000080 0.35000032
-0.89999735 0.10000080 0.35000032
1.09999895 -0.14999872 0.35000032
0.84999937 -0.14999872 0.35000032
0.59999985 -0.14999872 0.35000032
0.35000032 -0.14999872 0.35000032
0.10000080 -0.14999872 0.35000032
-0.14999872 -0.14999872 0.35000032
-0.39999825 -0.14999872 0.35000032
-0.64999783 -0.14999872 0.35000032
-0.89999735 -0.14999872 0.35000032
1.09999895 -0.39999825 0.35000032
0.84999937 -0.39999825 0.35000032
0.59999985 -0.39999825 0.35000032
0.35000032 -0.39999825 0.35000032
0.10000080 -0.39999825 0.35000032
-0.14999872 -0.39999825 0.35000032
-0.39999825 -0.39999825 0.35000032
-0.64999783 -0.39999825 0.35000032
-0.89999735 -0.39999825 0.35000032
1.09999895 -0.64999783 0.35000032
0.84999937 -0.64999783 0.35000032
0.59999985 -0.64999783 0.35000032
0.35000032 -0.64999783 0.35000032
0.10000080 -0.64999783 0.35000032
-0.14999872 -0.64999783 0.35000032
-0.39999825 -0.64999783 0.35000032
-0.64999783 -0.64999783 0.35000032
-0.89999735 -0.64999783 0.35000032
1.09999895 -0.89999735 0.35000032
0.84999937 -0.89999735 0.35000032
0.59999985 -0.89999735 0.35000032
0.35000032 -0.89999735 0.35000032
0.10000080 -0.89999735 0.35000032
-0.14999872 -0.89999735 0.35000032
-0.39999825 -0.89999735 0.35000032
-0.64999783 -0.89999735 0.35000032
-0.89999735 -0.89999735 0.35000032
1.09999895 1.09999895 0.59999985
0.84999937 1.09999895 0.59999985
0.59999985 1.09999895 0.59999985
0.35000032 1.09999895 0.59999985
0.10000080 1.09999895 0.59999985
-0.14999872 1.09999895 0.59999985
-0.39999825 1.09999895 0.59999985
-0.64999783 1.09999895 0.59999985
-0.89999735 1.09999895 0.59999985
1.09999895 0.84999937 0.59999985
0.84999937 0.84999937 0.59999985
0.59999985 0.84999937 0.59999985
0.35000032 0.84999937 0.59999985
0.10000080 0.84999937 0.59999985
-0.14999872 0.84999937 0.59999985
-0.39999825 0.84999937 0.59999985
-0.64999783 0.84999937 0.59999985
-0.89999735 0.84999937 0.59999985
1.09999895 0.59999985 0.59999985
0.84999937 0.59999985 0.59999985
0.59999985 0.59999985 0.59999985
0.35000032 0.59999985 0.59999985
0.10000080 0.59999985 0.59999985
-0.14999872 0.59999985 0.59999985
-0.39999825 0.59999985 0.59999985
-0.64999783 0.59999985 0.59999985
-0.89999735 0.59999985 0.59999985
1.09999895 0.35000032 0.59999985
0.84999937 0.35000032 0.59999985
0.59999985 0.35000032 0.59999985
0.35000032 0.35000032 0.59999985
0.10000080 0.35000032 0.59999985
-0.14999872 0.35000032 0.59999985
-0.39999825 0.35000032 0.59999985
-0.64999783 0.35000032 0.59999985
-0.89999735 0.35000032 0.59999985
1.09999895 0.10000080 0.59999985
0.84999937 0.10000080 0.59999985
0.59999985 0.10000080 0.59999985
0.35000032 0.10000080 0.59999985
0.10000080 0.10000080 0.59999985
-0.14999872 0.10000080 0.59999985
-0.39999825 0.10000080 0.59999985
-0.64999783 0.10000080 0.59999985
-0.89999735 0.10000080 0.59999985
1.09999895 -0.14999872 0.59999985
0.84999937 -0.14999872 0.59999985
0.59999985 -0.14999872 0.59999985
0.35000032 -0.14999872 0.59999985
0.10000080 -0.14999872 0.59999985
-0.14999872 -0.14999872 0.59999985
-0.39999825 -0.14999872 0.59999985
-0.64999783 -0.14999872 0.59999985
-0.89999735 -0.14999872 0.59999985
1.09999895 -0.39999825 0.59999985
0.84999937 -0.39999825 0.59999985
0.59999985 -0.39999825 0.59999985
0.35000032 -0.39999825 0.59999985
0.10000080 -0.39999825 0.59999985
-0.14999872 -0.39999825 0.59999985
-0.39999825 -0.39999825 0.59999985
-0.64999783 -0.39999825 0.59999985
-0.89999735 -0.39999825 0.59999985
1.09999895 -0.64999783 0.59999985
0.84999937 -0.64999783 0.59999985
0.59999985 -0.64999783 0.59999985
0.35000032 -0.64999783 0.59999985
0.10000080 -0.64999783 0.59999985
-0.14999872 -0.64999783 0.59999985
-0.39999825 -0.64999783 0.59999985
-0.64999783 -0.64999783 0.59999985
-0.89999735 -0.64999783 0.59999985
1.09999895 -0.89999735 0.59999985
0.84999937 -0.89999735 0.59999985
0.59999985 -0.89999735 0.59999985
0.35000032 -0.89999735 0.59999985
0.10000080 -0.89999735 0.59999985
-0.14999872 -0.89999735 0.59999985
-0.39999825 -0.89999735 0.59999985
-0.64999783 -0.89999735 0.59999985
-0.89999735 -0.89999735 0.59999985
1.09999895 1.09999895 0.84999937
0.84999937 1.09999895 0.84999937
0.59999985 1.09999895 0.84999937
0.35000032 1.09999895 0.84999937
0.10000080 1.09999895 0.84999937
-0.14999872 1.09999895 0.84999937
-0.39999825 1.09999895 0.84999937
-0.64999783 1.09999895 0.84999937
-0.89999735 1.09999895 0.84999937
1.09999895 0.84999937 0.84999937
0.84999937 0.84999937 0.84999937
0.59999985 0.84999937 0.84999937
0.35000032 0.84999937 0.84999937
0.10000080 0.84999937 0.84999937
-0.14999872 0.84999937 0.84999937
-0.39999825 0.84999937 0.84999937
-0.64999783 0.84999937 0.84999937
-0.89999735 0.84999937 0.84999937
1.09999895 0.59999985 0.84999937
0.84999937 0.59999985 0.84999937
0.59999985 0.59999985 0.84999937
0.35000032 0.59999985 0.84999937
0.10000080 0.59999985 0.84999937
-0.14999872 0.59999985 0.84999937
-0.39999825 0.59999985 0.84999937
-0.64999783 0.59999985 0.84999937
-0.89999735 0.59999985 0.84999937
1.09999895 0.35000032 0.84999937
0.84999937 0.35000032 0.84999937
0.59999985 0.35000032 0.84999937
0.35000032 0.35000032 0.84999937
0.10000080 0.35000032 0.84999937
-0.14999872 0.35000032 0.84999937
-0.39999825 0.35000032 0.84999937
-0.64999783 0.35000032 0.84999937
-0.89999735 0.35000032 0.84999937
1.09999895 0.10000080 0.84999937
0.84999937 0.10000080 0.84999937
0.59999985 0.10000080 0.84999937
0.35000032 0.10000080 0.84999937
0.10000080 0.10000080 0.84999937
-0.14999872 0.10000080 0.84999937
-0.39999825 0.10000080 0.84999937
-0.64999783 0.10000080 0.84999937
-0.89999735 0.10000080 0.84999937
1.09999895 -0.14999872 0.84999937
0.84999937 -0.14999872 0.84999937
0.59999985 -0.14999872 0.84999937
0.35000032 -0.14999872 0.84999937
0.10000080 -0.14999872 0.84999937
-0.14999872 -0.14999872 0.84999937
-0.39999825 -0.14999872 0.84999937
-0.64999783 -0.14999872 0.84999937
-0.89999735 -0.14999872 0.84999937
1.09999895 -0.39999825 0.84999937
0.84999937 -0.39999825 0.84999937
0.59999985 -0.39999825 0.84999937
0.35000032 -0.39999825 0.84999937
0.10000080 -0.39999825 0.84999937
-0.14999872 -0.39999825 0.84999937
-0.39999825 -0.39999825 0.84999937
-0.64999783 -0.39999825 0.84999937
-0.89999735 -0.39999825 0.84999937
1.09999895 -0.64999783 0.84999937
0.84999937 -0.64999783 0.84999937
0.59999985 -0.64999783 0.84999937
0.35000032 -0.64999783 0.84999937
0.10000080 -0.64999783 0.84999937
-0.14999872 -0.64999783 0.84999937
-0.39999825 -0.64999783 0.84999937
-0.64999783 -0.64999783 0.84999937
-0.89999735 -0.64999783 0.84999937
1.09999895 -0.89999735 0.84999937
0.84999937 -0.89999735 0.84999937
0.59999985 -0.89999735 0.84999937
0.35000032 -0.89999735 0.84999937
0.10000080 -0.89999735 0.84999937
-0.14999872 -0.89999735 0.84999937
-0.39999825 -0.89999735 0.84999937
-0.64999783 -0.89999735 0.84999937
-0.89999735 -0.89999735 0.84999937
1.09999895 1.09999895 1.09999895
0.84999937 1.09999895 1.09999895
0.59999985 1.09999895 1.09999895
0.35000032 1.09999895 1.09999895
0.10000080 1.09999895 1.09999895
-0.14999872 1.09999895 1.09999895
-0.39999825 1.09999895 1.09999895
-0.64999783 1.09999895 1.09999895
-0.89999735 1.09999895 1.09999895
1.09999895 0.84999937 1.09999895
0.84999937 0.84999937 1.09999895
0.59999985 0.84999937 1.09999895
0.35000032 0.84999937 1.09999895
0.10000080 0.84999937 1.09999895
-0.14999872 0.84999937 1.09999895
-0.39999825 0.84999937 1.09999895
-0.64999783 0.84999937 1.09999895
-0.89999735 0.84999937 1.09999895
1.09999895 0.59999985 1.09999895
0.84999937 0.59999985 1.09999895
0.59999985 0.59999985 1.09999895
0.35000032 0.59999985 1.09999895
0.10000080 0.59999985 1.09999895
-0.14999872 0.59999985 1.09999895
-0.39999825 0.59999985 1.09999895
-0.64999783 0.59999985 1.09999895
-0.89999735 0.59999985 1.09999895
1.09999895 0.35000032 1.09999895
0.84999937 0.35000032 1.09999895
0.59999985 0.35000032 1.09999895
0.35000032 0.35000032 1.09999895
0.10000080 0.35000032 1.09999895
-0.14999872 0.35000032 1.09999895
-0.39999825 0.35000032 1.09999895
-0.64999783 0.35000032 1.09999895
-0.89999735 0.35000032 1.09999895
1.09999895 0.10000080 1.09999895
0.84999937 0.10000080 1.09999895
0.59999985 0.10000080 1.09999895
0.35000032 0.10000080 1.09999895
0.10000080 0.10000080 1.09999895
-0.14999872 0.10000080 1.09999895
-0.39999825 0.10000080 1.09999895
-0.64999783 0.10000080 1.09999895
-0.89999735 0.10000080 1.09999895
1.09999895 -0.14999872 1.09999895
0.84999937 -0.14999872 1.09999895
0.59999985 -0.14999872 1.09999895
0.35000032 -0.14999872 1.09999895
0.10000080 -0.14999872 1.09999895
-0.14999872 -0.14999872 1.09999895
-0.39999825 -0.14999872 1.09999895
-0.64999783 -0.14999872 1.09999895
-0.89999735 -0.14999872 1.09999895
1.09999895 -0.39999825 1.09999895
0.84999937 -0.39999825 1.09999895
0.59999985 -0.39999825 1.09999895
0.35000032 -0.39999825 1.09999895
0.10000080 -0.39999825 1.09999895
-0.14999872 -0.39999825 1.09999895
-0.39999825 -0.39999825 1.09999895
-0.64999783 -0.39999825 1.09999895
-0.89999735 -0.39999825 1.09999895
1.09999895 -0.64999783 1.09999895
0.84999937 -0.64999783 1.09999895
0.59999985 -0.64999783 1.09999895
0.35000032 -0.64999783 1.09999895
0.10000080 -0.64999783 1.09999895
-0.14999872 -0.64999783 1.09999895
-0.39999825 -0.64999783 1.09999895
-0.64999783 -0.64999783 1.09999895
-0.89999735 -0.64999783 1.09999895
1.09999895 -0.89999735 1.09999895
0.84999937 -0.89999735 1.09999895
0.59999985 -0.89999735 1.09999895
0.35000032 -0.89999735 1.09999895
0.10000080 -0.89999735 1.09999895
-0.14999872 -0.89999735 1.09999895
-0.39999825 -0.89999735 1.09999895
-0.64999783 -0.89999735 1.09999895
-0.89999735 -0.89999735 1.09999895
