imageandaudiofx/The Original G-Major 2.cube
# VEGAS Pro LUT
TITLE "The Original G-Major 2"
LUT_3D_SIZE 5
1.09999895 1.09999895 -0.89999735
0.59999985 1.09999895 -0.89999735
0.10000080 1.09999895 -0.89999735
-0.39999825 1.09999895 -0.89999735
-0.89999735 1.09999895 -0.89999735
1.09999895 0.59999985 -0.89999735
0.59999985 0.59999985 -0.89999735
0.10000080 0.59999985 -0.89999735
-0.39999825 0.59999985 -0.89999735
-0.89999735 0.59999985 -0.89999735
1.09999895 0.10000080 -0.89999735
0.59999985 0.10000080 -0.89999735
0.10000080 0.10000080 -0.89999735
-0.39999825 0.10000080 -0.89999735
-0.89999735 0.10000080 -0.89999735
1.09999895 -0.39999825 -0.89999735
0.59999985 -0.39999825 -0.89999735
0.10000080 -0.39999825 -0.89999735
-0.39999825 -0.39999825 -0.89999735
-0.89999735 -0.39999825 -0.89999735
1.09999895 -0.89999735 -0.89999735
0.59999985 -0.89999735 -0.89999735
0.10000080 -0.89999735 -0.89999735
-0.39999825 -0.89999735 -0.89999735
-0.89999735 -0.89999735 -0.89999735
1.09999895 1.09999895 -0.39999825
0.59999985 1.09999895 -0.39999825
0.10000080 1.09999895 -0.39999825
-0.39999825 1.09999895 -0.39999825
-0.89999735 1.09999895 -0.39999825
1.09999895 0.59999985 -0.39999825
0.59999985 0.59999985 -0.39999825
0.10000080 0.59999985 -0.39999825
-0.39999825 0.59999985 -0.39999825
-0.89999735 0.59999985 -0.39999825
1.09999895 0.10000080 -0.39999825
0.59999985 0.10000080 -0.39999825
0.10000080 0.10000080 -0.39999825
-0.39999825 0.10000080 -0.39999825
-0.89999735 0.10000080 -0.39999825
1.09999895 -0.39999825 -0.39999825
0.59999985 -0.39999825 -0.39999825
0.10000080 -0.39999825 -0.39999825
-0.39999825 -0.39999825 -0.39999825
-0.89999735 -0.39999825 -0.39999825
1.09999895 -0.89999735 -0.39999825
0.59999985 -0.89999735 -0.39999825
0.10000080 -0.89999735 -0.39999825
-0.39999825 -0.89999735 -0.39999825
-0.89999735 -0.89999735 -0.39999825
1.09999895 1.09999895 0.10000080
0.59999985 1.09999895 0.10000080
0.10000080 1.09999895 0.10000080
-0.39999825 1.09999895 0.10000080
-0.89999735 1.09999895 0.10000080
1.09999895 0.59999985 0.10000080
0.59999985 0.59999985 0.10000080
0.10000080 0.59999985 0.10000080
-0.39999825 0.59999985 0.10000080
-0.89999735 0.59999985 0.10000080
1.09999895 0.10000080 0.10000080
0.59999985 0.10000080 0.10000080
0.10000080 0.10000080 0.10000080
-0.39999825 0.10000080 0.10000080
-0.89999735 0.10000080 0.10000080
1.09999895 -0.39999825 0.10000080
0.59999985 -0.39999825 0.10000080
0.10000080 -0.39999825 0.10000080
-0.39999825 -0.39999825 0.10000080
-0.89999735 -0.39999825 0.10000080
1.09999895 -0.89999735 0.10000080
0.59999985 -0.89999735 0.10000080
0.10000080 -0.89999735 0.10000080
-0.39999825 -0.89999735 0.10000080
-0.89999735 -0.89999735 0.10000080
1.09999895 1.09999895 0.59999985
0.59999985 1.09999895 0.59999985
0.10000080 1.09999895 0.59999985
-0.39999825 1.09999895 0.59999985
-0.89999735 1.09999895 0.59999985
1.09999895 0.59999985 0.59999985
0.59999985 0.59999985 0.59999985
0.10000080 0.59999985 0.59999985
-0.39999825 0.59999985 0.59999985
-0.89999735 0.59999985 0.59999985
1.09999895 0.10000080 0.59999985
0.59999985 0.10000080 0.59999985
0.10000080 0.10000080 0.59999985
-0.39999825 0.10000080 0.59999985
-0.89999735 0.10000080 0.59999985
1.09999895 -0.39999825 0.59999985
0.59999985 -0.39999825 0.59999985
0.10000080 -0.39999825 0.59999985
-0.39999825 -0.39999825 0.59999985
-0.89999735 -0.39999825 0.59999985
1.09999895 -0.89999735 0.59999985
0.59999985 -0.89999735 0.59999985
0.10000080 -0.89999735 0.59999985
-0.39999825 -0.89999735 0.59999985
-0.89999735 -0.89999735 0.59999985
1.09999895 1.09999895 1.09999895
0.59999985 1.09999895 1.09999895
0.10000080 1.09999895 1.09999895
-0.39999825 1.09999895 1.09999895
-0.89999735 1.09999895 1.09999895
1.09999895 0.59999985 1.09999895
0.59999985 0.59999985 1.09999895
0.10000080 0.59999985 1.09999895
-0.39999825 0.59999985 1.09999895
-0.89999735 0.59999985 1.09999895
1.09999895 0.10000080 1.09999895
0.59999985 0.10000080 1.09999895
0.10000080 0.10000080 1.09999895
-0.39999825 0.10000080 1.09999895
-0.89999735 0.10000080 1.09999895
1.09999895 -0.39999825 1.09999895
0.59999985 -0.39999825 1.09999895
0.10000080 -0.39999825 1.09999895
-0.39999825 -0.39999825 1.09999895
-0.89999735 -0.39999825 1.09999895
1.09999895 -0.89999735 1.09999895
0.59999985 -0.89999735 1.09999895
0.10000080 -0.89999735 1.09999895
-0.39999825 -0.89999735 1.09999895
-0.89999735 -0.89999735 1.09999895
